#define dmc2_pendant_width 24
#define dmc2_pendant_height 24
static unsigned char dmc2_pendant_bits[] = {
   0x00, 0x00, 0x00, 0x80, 0xff, 0x01, 0x60, 0x00, 0x06, 0x10, 0x00, 0x08,
   0x10, 0x00, 0x08, 0x10, 0x7e, 0x08, 0x90, 0x81, 0x09, 0x90, 0x99, 0x39,
   0x50, 0x5a, 0x4a, 0x50, 0xff, 0x4a, 0x50, 0xff, 0x3a, 0x90, 0x5a, 0x09,
   0x90, 0x99, 0x09, 0x10, 0x7e, 0x08, 0x10, 0x00, 0x08, 0x10, 0x00, 0x08,
   0x90, 0x99, 0x09, 0x90, 0x99, 0x09, 0x10, 0x00, 0x08, 0x10, 0x00, 0x08,
   0x60, 0x00, 0x06, 0x80, 0xff, 0x01, 0x00, 0x18, 0x00, 0x00, 0x10, 0x00 };
